!!!OTL: 700. Der Baum im Odenwald.
!!!ODT: 1781
!!!ARE: Europa, Mitteleuropa, Deutschland
!!!SCT: E0700B
!!!TXL: @@DE
!!!YEM: Copyright 1995, estate of Helmut Schaffrath.
**kern	**text
*ICvox	*
*M4/4	*
*met(c)	*
*k[f#c#]	*
*D:	*
!LO:TX:a:t=Lebhaft.	!
!LO:TX:a:t=Urmelodie v. F. Reichardt 1781.	!
{4a	Nicht
=1	=1
4a	lo-
4a	-bens-
4f#	-wür-
4d	-dig
=2	=2
4e	iſt
4e	der
4e}	Mann,
{4a	noch
=3	=3
4a	mir
4a	des
4f#	Nei-
4d	-des
=4	=4
2.e}	werth,
{4ee	der
=5	=5
4ee	nur
4ee	mit
4cc#	prun-
4a	-ken-
=6	=6
4dd	-dem
4dd	Ge-
4dd}	-ſpann
{4ff#	um
=7	=7
4ee	ſei-
4ee	-ne
4cc#	Gär-
4a	-ten
=8	=8
2dd	fährt.
4r}	.
==	==
!!!AGN: Liebes - Lied, Leid, Klage
!!!ONB: ESAC (Essen Associative Code) Database: ERK2
!!!AMT: simple quadruple
!!!AIN: vox
!!!EED: Helmut Schaffrath
!!!EEV: 1.0
!!!GTL: Liebeslieder [Neuere (aus dem 18. bis 19. Jahrh.) - Liebesleid] 678-740
!!!URL-scan: https://rosdok.uni-rostock.de/mcrviewer/recordIdentifier/rosdok_ppn745177662/iview2/phys_0504.iview2?x=72.97952720689091&y=778.9922378633637&scale=0.7029437510502773&rotation=0&layout=singlePageLayout
!!!ENC: Anna Maria Matuszewska
!!!EEV: 2024/12/16
*-	*-
